X:9
T:Military Set #1 (Sea)
M:4/4
L:1/8
Q:1/4=84
K:D
T:Anchors Aweigh
e4
|:{/gAd}A4{/g}c2e2 |{/gfg}f3c1{/g}f4 |{/Gdc}d4{/gef}e2A2 |{/Gdc}d4-d4 |!
[1  {/gBd}B4 {/Gdc}d2B2 |{/gAd}A2B2 {/g}c2{/Gdc}d2 |{/g}G2{/d}B2{/gef}e2d2 |{/gcd}c2{/g}A2{/gfg}f2{/g}e2 :|!
[2  {/gBd}B4 {/Gdc}d2B2 |{/gAd}A2B2 {/g}c2{/Gdc}d2 |{/g}f3/2A/2 {/g}G1{/d}A1 {/g}e3/2A/2 {/g}G1{/d}A1 |{/Gdc}d4{/gdG}d4 |]!
T:Semper Paratus
{/g} A2{/d} A2{/e} AG{/g} Ad |{/g} e2-e4 {/A} e2 |{/gfg} f2-f e{/Gdc} d2 f2 | 
{/gef} e2-e4 {/g} c2 |! 
{/Gdc} d2-d c{/gBd} B2 e2 | {/gcd} c2 B2{/G} A2 c2 |{/g} B2 e2 d2 f2 | {/g} e8 ||!
{/g} A2{/d} A2{/e} AG{/g} Ad |{/g} e2-e4 {/A} e2 |{/gfg} f2-f e{/Gdc} d2 f2 | {/gef} e2-e4 {/g} c2 |!
{/Gdc} d2-d c{/gBd} B2 e2 |{/gcd} c2 B2{/G} A2 B2 |{/g} ce-ec{/g} A2 B2 | {/G} A4{/GAG} A2 |]!

